X:1
T:Sonatina
T:Sonatina
T:Op. 39, No. 1
T:Frank Lynes
T:Public Domain (PianoXML typeset)
T:Public Domain (PianoXML typeset)
T:Public Domain (PianoXML typeset)
C:Frank Lynes
Z:Public Domain (PianoXML typeset)
%%score { 1 | 2 }
L:1/8
Q:1/4=112
M:2/4
K:C
V:1 treble nm="Piano" snm="Pno."
V:2 bass 
V:1
"^Allegro" (ce/c/ .G)(c/G/ | .E)(G/E/ .C).C |!<(! B,/-C/D/E/!<)!F/!>(!E/D/C/ | B,4!>)! | %4
 (fa/f/ .d)(f/d/ | .B)(d/B/ .G).B |!<(! (c/d/c/B/!<)!!>(!c/e/g/e/ | c4)!>)! |!mf! (a/b/a/^g/ a) z | %9
 (g/a/g/^f/ .g) z | (f/g/f/e/ .f) z | (e/f/e/^d/ .e) z |!>(! (d/e/d/^c/ .d) z | %13
 (=c/d/c/B/ .c) z!>)! | (B/!<(!c/B/^A/B/d/B/!<)!G/) | (c/d/c/B/c/e/c/G/) | (d/e/d/^c/d/e/f/e/ | %17
!>(! d/c/B/A/G/^G/A/B/)!>)! |!p! (ce/c/ .G)(c/G/ | .E)(G/E/ .C).C | %20
!<(! (B,/C/D/E/!<)!F/!>(!E/D/C/ | B,4)!>)! | (fa/f/ .d)(f/d/ | .B)(d/B/ .G).B | %24
!<(! (c/d/c/B/!<)!c/!>(!e/g/e/ | c4)!>)! |!mf! (a/b/a/^g/ .a) z | (g/a/g/^f/ .g) z | %28
 (f/g/f/e/ .f) z | (e/f/e/^d/ .e) z |!<(! (d/e/d/^c/ .d) z | (B/c/B/^A/ .B)!<)! z | %32
 (c/d/e/f/g/a/b/c'/) | (b/a/g/f/e/d/c/B/) | (c/d/e/f/g/a/b/c'/) | (b/a/g/f/e/d/c/B/) | %36
 c z [EGc] z | [EGc] z [EGc] z | [EGc]4- | [EGc]2 z2 |][K:G][M:3/4]!p![Q:1/4=108]"^Allegretto" GB | %41
 d2 .[Bd].[Bd] .[Bd].[Bd] | (.[Bd]2 .[GB]2 .[Bd]2) | .[Bg]2 .[Bg].[Bg] .[Bg].[Bg] | [Bd]4 (Bd) | %45
!<(! (c2 A2) (Ac) | (B2 G2) (GB)!<)! |!f! A2 .A.A .[GA].[GA] | [FA]4!p! (GB | %49
 d2) .[Bd].[Bd] .[Bd].[Bd] | (.[Bd]2 .[GB]2 .[Bd]2) | [Bg]2 .[Bg].[Bg] .[Bg].[Bg] | [Bd]4 B2 | %53
!mf! (ABcd .e) z | (GABc .d) z | (ABABAB | G4) ::!p! (AF | G2) .[Ge]2 .[Ge]2 | [Fd]4!mf! (fd | %60
 a4 ge | f4)!p! (AF | G2) .[Ge]2 .[Ge]2 | [Fd]4 (af | ea^gabe | a4)!p! (AF) | G2 .[Ge]2 .[Ge]2 | %67
 [Fd]4!mf! (fd | a4) (ge | f4)!p! (AF | G2) .[Ge]2 .[Ge]2 | [Fd]4 (AF) |!<(! (EFGAB^c | %73
 [Fd]4)!<)!!>(! (GB | d2)!>)! .[Bd].[Bd] .[Bd].[Bd] | (.[Bd]2 .[GB]2 .[Bd]2) | %76
 [Bg]2 .[Bg].[Bg] .[Bg].[Bg] | [Bd]4 (Bd) |!<(! (c2 A2) (Ac) | (B2 G2) (GB)!<)! | %80
!f! A2 .A.A .[GA].[GA] | [FA]4!p! (GB | d2) .[Bd].[Bd] .[Bd].[Bd] | (.[Bd]2 .[GB]2 .[Bd]2) | %84
 [Bg]2 .[Bg].[Bg].[Bg].[Bg] | [Bd]4 B2 |!mf! (ABcd e) z | (GABc .d) z | ABABAB | G4 :| %90
[M:3/8]!p![Q:3/8=66]"^Allegro" (g/f/.e).e | (e/d/.c).c | (B/c/d/^c/d/e/ | f3) | (f/e/.d).d | %95
 (d/c/.B).B | (c/B/c/d/e/f/ | g3) |!<(! (A/B/A/^G/A/B/ | c/d/c/B/c/e/)!<)! | .g.g.g | (g2 e) | %102
 (d/e/d/g/.b) | (d/!<(!e/d/^f/.a)!<)! |!f! (!^!g/a/g/a/g/a/) |!>(! (g/a/g/a/g/a/) | %106
 (g/a/g/a/g/a/) | (g/a/g/a/g/a/)!>)! | (g/a/g/b/a/g/) | (f/g/f/a/g/f/) | (e/f/e/g/f/e/) | %111
 (d/e/d/f/e/d/) | (c/d/c/e/d/c/) | (B/c/B/d/c/B/) | (A/B/A/c/B/A/) | (G/B/c/d/e/f/) | (g/f/.e).e | %117
 (e/d/.c).c | (B/c/d/^c/d/e/ | f3) | (f/e/.d).d | (d/c/.B).B | (c/B/c/d/e/f/ | g3) | %124
!<(! (A/B/A/^G/A/B/) | (c/d/c/B/c/e/) | .g.g.g | (g2 e)!<)! | (d/e/d/f/a) | (.c/d/c/e/g) | %130
 (g/a/g/b/a/g/) | (d'/c'/b/g/a/b/) |!mf! .c'(c'/b/a/g/) | .a(a/g/f/e/) | .g.g.d | (e2 c) | %136
 .c(c/B/A/G/) | .A(A/G/F/E/) | (D/E/F/G/A/B/) | c3 | !tenuto!.[Gce]3 | !tenuto!.!fermata![EGc]3 |] %142
V:2
!p! C,4- | C,4 | G,4- | G,.G, .G,.G, | G,4- | G,4 | C,4- | C,.C, .D,.E, | F,3 C, | E,3 C, | %10
 D,3 G, | C,3 G, | F,3 A, | ^F,3 A, | G,4- | G,4- | G,4- | G,4 | C,4- | C,4 | G,4- | G,.G, .G,.G, | %22
 G,4- | G,4 | C,4- | C,.C, .D,.E, | F,3 C, | .E,3 C, | D,3 G, | C,3 G, | F,3 A, | G,3 G, | %32
!mf! C,G,E,G, | D,G,F,G, | C,G,E,G, | D,G,F,G, | C,G,E,G, | C,G,E,G, | C,G,E,G, | C,2 z2 |] %40
[K:G][M:3/4] z2 | G,DB,DB,D | G,DB,DB,D | G,DB,DB,D | G,DB,DB,D | F,DA,DA,D | G,DB,DB,D | %47
 [CE]4 [^CE]2 | .D2 .D,2 z2 | G,DB,DB,D | G,DB,DB,D | G,DB,DB,D | G,DB,DB,D | .[CE]2 z2 .[CE]2 | %54
 .D2 z2 .D2 | [E,G,^C]4 .[D,F,=C]2 | .[G,B,]2 .G,,2 :: z2 | ^C,A,!p!G,A,G,A, | D,A,F,A,F,A, | %60
 ^C,A,E,A,E,A, | D,A,F,A,F,A, | ^C,A,G,A,G,A, | D,A,F,A,F,A, | [E,A,^C]4 [E,^G,D]2 | %65
 .[A,^C]2 .A,,2 z2 | ^C,A,G,A,G,A, | D,A,F,A,F,A, | ^C,A,E,A,E,A, | D,A,F,A,F,A, | ^C,A,G,A,G,A, | %71
 D,A,F,A,F,A, | G,2 (A,2 E,2 | D,2) (D=CB,A, | G,)DB,CB,C | G,DB,DB,D | G,DB,DB,D | G,DB,DB,D | %78
 F,DA,CA,D | G,DB,DB,D | [CE]4 [^CE]2 | .D2 .D,2 z2 | G,DB,DB,D | G,DB,DB,D | G,CB,DB,D | %85
 G,DB,DB,D | .[CE]2 z2 .[CE]2 | .D2 z2 .D2 | [E,G,^C]4 [D,F,=C]2 | [G,B,]2 .G,,2 :|[M:3/8] C,E,G, | %91
 C,E,G, | D,G,G, | D,G,G, | B,,D,G, | D,G,G, | C,E,G, | C,E,G, | F,A,A, | E,G,G, | %100
 B,,[F,G,][F,G,] | C,E,G, | D,G,B, | D,A,C | .!^![G,B,] z z | G,3- | [G,_B,]3- | [G,B,D]3- | %108
 [G,B,DF] z z | x3 | x3 | x3 | x3 | x3 | x3 | x3 |!p! C,E,G, | C,E,G, | D,G,G, | D,G,G, | B,,D,G, | %121
 D,G,G, | C,E,G, | C,E,G, | F,A,A, | E,G,G, | B,,[F,G,][F,G,] | C,E,G, | F,A,D | G,CE | [G,B,D]3- | %131
 [G,B,D]2 z | C,[E,G,][E,G,] | C,[E,G,][E,G,] | B,,[F,G,][F,G,] | C,[E,G,][E,G,] | C,[E,G,][E,G,] | %137
 C,[E,G,][E,G,] | .G,,.G,.G, | [C,E,G,]3 | !tenuto!.C,3 | !tenuto!.!fermata!C,3 |] %142

